public/icons/manageTemplates.svg

<?xml version="1.0" encoding="utf-8"?><!-- Uploaded to: SVG Repo, www.svgrepo.com, Generator: SVG Repo Mixer Tools -->
<svg width="800px" height="800px" viewBox="0 0 24 24" fill="none" xmlns="http://www.w3.org/2000/svg">
<path d="M18.5116 10.0771C18.5116 10.8157 17.8869 11.4146 17.1163 11.4146C16.3457 11.4146 15.7209 10.8157 15.7209 10.0771C15.7209 9.33841 16.3457 8.7396 17.1163 8.7396C17.8869 8.7396 18.5116 9.33841 18.5116 10.0771Z" fill="#FFFFFF"/>
<path fill-rule="evenodd" clip-rule="evenodd" d="M18.0363 5.53245C16.9766 5.39588 15.6225 5.39589 13.9129 5.39591H10.0871C8.37751 5.39589 7.02343 5.39588 5.9637 5.53245C4.87308 5.673 3.99033 5.96913 3.29418 6.63641C2.59803 7.30369 2.28908 8.14982 2.14245 9.19521C1.99997 10.211 1.99999 11.5089 2 13.1475V13.2482C1.99999 14.8868 1.99997 16.1847 2.14245 17.2005C2.28908 18.2459 2.59803 19.092 3.29418 19.7593C3.99033 20.4266 4.87307 20.7227 5.9637 20.8633C7.02344 20.9998 8.37751 20.9998 10.0871 20.9998H13.9129C15.6225 20.9998 16.9766 20.9998 18.0363 20.8633C19.1269 20.7227 20.0097 20.4266 20.7058 19.7593C21.402 19.092 21.7109 18.2459 21.8575 17.2005C22 16.1847 22 14.8868 22 13.2482V13.1476C22 11.5089 22 10.211 21.8575 9.19521C21.7109 8.14982 21.402 7.30369 20.7058 6.63641C20.0097 5.96913 19.1269 5.673 18.0363 5.53245ZM6.14963 6.858C5.21373 6.97861 4.67452 7.20479 4.28084 7.58215C3.88716 7.9595 3.65119 8.47635 3.52536 9.37343C3.42443 10.093 3.40184 10.9923 3.3968 12.1686L3.86764 11.7737C4.99175 10.8309 6.68596 10.885 7.74215 11.8974L11.7326 15.7223C12.1321 16.1053 12.7611 16.1575 13.2234 15.8461L13.5008 15.6593C14.8313 14.763 16.6314 14.8668 17.8402 15.9096L20.2479 17.9866C20.3463 17.7226 20.4206 17.4075 20.4746 17.0223C20.6032 16.106 20.6047 14.8981 20.6047 13.1979C20.6047 11.4976 20.6032 10.2897 20.4746 9.37343C20.3488 8.47635 20.1128 7.9595 19.7192 7.58215C19.3255 7.20479 18.7863 6.97861 17.8504 6.858C16.8944 6.7348 15.6343 6.73338 13.8605 6.73338H10.1395C8.36575 6.73338 7.10559 6.7348 6.14963 6.858Z" fill="#FFFFFF"/>
<path d="M17.0863 2.61039C16.2265 2.49997 15.1318 2.49998 13.7672 2.5H10.6775C9.31284 2.49998 8.21815 2.49997 7.35834 2.61039C6.46796 2.72473 5.72561 2.96835 5.13682 3.53075C4.79725 3.8551 4.56856 4.22833 4.41279 4.64928C4.91699 4.41928 5.48704 4.28374 6.12705 4.20084C7.21143 4.06037 8.597 4.06038 10.3463 4.06039H14.2612C16.0105 4.06038 17.396 4.06037 18.4804 4.20084C19.0394 4.27325 19.545 4.38581 20 4.56638C19.8454 4.17917 19.625 3.83365 19.3078 3.53075C18.719 2.96835 17.9767 2.72473 17.0863 2.61039Z" fill="#FFFFFF"/>
</svg>

<svg xmlns="http://www.w3.org/2000/svg" width="800" height="800" fill="none" viewBox="0 0 24 24"><path fill="#fff" d="M18.512 10.077c0 .739-.625 1.338-1.396 1.338s-1.395-.6-1.395-1.338.625-1.337 1.395-1.337 1.396.598 1.396 1.337"/><path fill="#fff" fill-rule="evenodd" d="M18.036 5.532c-1.06-.136-2.414-.136-4.123-.136h-3.826c-1.71 0-3.064 0-4.123.136-1.09.141-1.974.437-2.67 1.104-.696.668-1.005 1.514-1.152 2.56C2 10.21 2 11.508 2 13.147v.1c0 1.639 0 2.937.142 3.953.147 1.045.456 1.891 1.152 2.558.696.668 1.58.964 2.67 1.104C7.024 21 8.378 21 10.087 21h3.826c1.71 0 3.064 0 4.123-.137 1.09-.14 1.974-.436 2.67-1.104.696-.667 1.005-1.513 1.152-2.558.142-1.016.142-2.314.142-3.953v-.1c0-1.64 0-2.937-.142-3.953-.147-1.045-.456-1.891-1.152-2.559-.696-.667-1.58-.963-2.67-1.104M6.15 6.858c-.936.12-1.475.347-1.87.724-.393.378-.629.894-.755 1.791-.1.72-.123 1.62-.128 2.796l.47-.395c1.125-.943 2.819-.889 3.875.123l3.99 3.825a1.2 1.2 0 0 0 1.491.124l.278-.187a3.606 3.606 0 0 1 4.34.25l2.407 2.078c.098-.264.173-.58.227-.965.128-.916.13-2.124.13-3.824s-.002-2.908-.13-3.825c-.126-.897-.362-1.413-.756-1.79-.393-.378-.933-.604-1.869-.725-.956-.123-2.216-.125-3.99-.125h-3.72c-1.774 0-3.034.002-3.99.125" clip-rule="evenodd"/><path fill="#fff" d="M17.086 2.61c-.86-.11-1.954-.11-3.319-.11h-3.09c-1.364 0-2.459 0-3.319.11-.89.115-1.632.358-2.221.92a2.9 2.9 0 0 0-.724 1.12c.504-.23 1.074-.366 1.714-.45 1.084-.14 2.47-.14 4.22-.14h3.914c1.75 0 3.135 0 4.22.14.558.073 1.064.186 1.519.366a2.9 2.9 0 0 0-.692-1.035c-.589-.563-1.331-.806-2.222-.92"/></svg>
